assets/icons/functional/office&editing/archive-tray.svg

<svg width="32" height="32" viewBox="0 0 32 32" fill="none" xmlns="http://www.w3.org/2000/svg"><g id="Icon-ArchiveTray"><g clip-path="url(#clip0_12_2068)"><g id="size=md (32px)"><g id="ArchiveTray"><path id="Vector" d="M26 5H6C5.44772 5 5 5.44772 5 6V26C5 26.5523 5.44772 27 6 27H26C26.5523 27 27 26.5523 27 26V6C27 5.44772 26.5523 5 26 5Z" stroke="#101828" stroke-width="2" stroke-linecap="round" stroke-linejoin="round"/><path id="Vector_2" d="M11.7627 14.7625L16.0002 19L20.2377 14.7625" stroke="#101828" stroke-width="2" stroke-linecap="round" stroke-linejoin="round"/><path id="Vector_3" d="M16 9V19" stroke="#101828" stroke-width="2" stroke-linecap="round" stroke-linejoin="round"/><path id="Vector_4" d="M5 20H9.5875C9.71735 19.9996 9.84602 20.0247 9.96613 20.074C10.0862 20.1234 10.1955 20.1959 10.2875 20.2875L12.7125 22.7125C12.8045 22.8041 12.9138 22.8766 13.0339 22.926C13.154 22.9753 13.2826 23.0005 13.4125 23H18.5875C18.7174 23.0005 18.846 22.9753 18.9661 22.926C19.0862 22.8766 19.1955 22.8041 19.2875 22.7125L21.7125 20.2875C21.8045 20.1959 21.9138 20.1234 22.0339 20.074C22.154 20.0247 22.2826 19.9996 22.4125 20H27" stroke="#101828" stroke-width="2" stroke-linecap="round" stroke-linejoin="round"/></g></g></g></g><defs><clipPath id="clip0_12_2068"><rect width="32" height="32" rx="5" fill="white"/></clipPath></defs></svg>

<svg xmlns="http://www.w3.org/2000/svg" width="32" height="32" fill="none"><g clip-path="url(#a)" stroke="#101828" stroke-linecap="round" stroke-linejoin="round" stroke-width="2"><path d="M26 5H6a1 1 0 0 0-1 1v20a1 1 0 0 0 1 1h20a1 1 0 0 0 1-1V6a1 1 0 0 0-1-1Z"/><path d="M11.762 14.762 16 19l4.238-4.238M16 9v10M5 20h4.588a.99.99 0 0 1 .7.288l2.425 2.424a.988.988 0 0 0 .7.288h5.174a.987.987 0 0 0 .7-.288l2.425-2.424a.988.988 0 0 1 .7-.288H27"/></g><defs><clipPath id="a"><rect width="32" height="32" fill="#fff" rx="5"/></clipPath></defs></svg>
